X: 21
T: Swallow's Tail, The
Z: DonaldK
S: https://thesession.org/tunes/105#setting46203
R: reel
M: 4/4
L: 1/8
K: Amix
|:gf|eAcA eAcA|Bdef g2fe|dGBG dGBG|GABc dBgf|
eAcA eAcA|Bdef g2fg|afge dfed|cABG A2:|
|:gf|eaag e2ed|cdef g2dB|GGBG dGBG|GABc dBgf|
eaag e2ed|cdef g2fg|afge dfed|cABG A2:|

